X:1
T:Her komme dine arme smaa
T:Her komme dine arme smaa
T:fra Melodibog til samtlige authoriserede Salmebøger (1878)
%%score [ 1 2 3 4 ]
L:1/8
M:6/4
K:G
V:1 treble nm="Soprano"
V:2 treble nm="Alto"
V:3 treble-8 nm="Tenor"
V:4 bass nm="Bass"
V:1
 E2 E2 E2 | B3 A G2 B2 A2 G2 | F4 z2 B2 B2 ^c2 | d4 ^c2 B4 ^A2 | B4 z2 B2 A2 G2 | %5
w: Her kom- me|di- * ne ar- * me|smaa, o Je- su,|i din stald at|gaa, op- lys en-|
 G3 A B2 A2 G2 F2 | G4 z2 d2 e2 d2 | B3 A G2 F2 E2 ^D2 | !fermata!E6 |] %9
w: hver _ i Sjel _ og|Sind at fin- de|Vej- en til _ dig _|ind.|
V:2
 B,2 C2 C2 | D4 D2 D2 C2 B,2 | ^D4 z2 E2 G2 F2 | F4 E2 D2 ^C2 C2 | D4 z2 D2 D2 D2 | %5
w: Her kom- me|di- ne ar- * me|smaa, o Je- su,|i din stald * at|gaa, op- lys en-|
 D4 D2 F2 D2 D2 | D4 z2 G2 G2 F2 | F4 E2 C4 B,2 | !fermata!B,6 |] %9
w: hver i Sjel _ og|Sind at fin- de|Vej- en til dig|ind.|
V:3
 G2 A2 G2 | G3 F G2 G2 F2 G2 | B4 z2 B2 =d2 ^c2 | B4 G2 F2 G2 F2 | F4 z2 G2 F2 A2 | %5
w: Her kom- me|di- * ne ar- * me|smaa, o Je- su,|i din stald * at|gaa, op- lys en-|
 G3 F G2 c2 B2 A2 | B4 z2 G2 c2 A2 | B4 B2 A2 G2 F2 | !fermata!G6 |] %9
w: hver _ i Sjel _ og|Sind at fin- de|Vej- en * dig _|ind.|
V:4
 E,2 A,,2 C,2 | G,,3 A,, B,,2 D,2 ^D,2 E,2 | B,,4 z2 G,,2 B,,2 ^A,,2 | B,,4 ^C,2 D,2 E,2 F,2 | %4
w: Her kom- me|di- * ne ar- * me|smaa, o Je- su,|i din stald * at|
 B,,4 z2 G,2 D,2 C,2 | B,,3 A,, G,,2 A,,2 B,,2 D,2 | G,,4 z2 B,,2 C,2 D,2 | ^D,4 E,2 A,,4 B,,2 | %8
w: gaa, op- lys en-|hver _ i Sjel _ og|Sind at fin- de|Vej- en til dig|
 !fermata!E,6 |] %9
w: ind.|

